!!!!SEGMENT: T136_Jan-w44p8-9m3-1h6m1-8.krn
!!!COM: Janáček, Leoš [Leo Eugen]
!!!OTL: Act I, Scene 1: Jak chytili Lisku Bystrousku (How they caught the Vixen Bystrouska)
!!!AGN: Stage
!!!AGN-sub: Opera
!!!CNT: Czech
!!!ODT: 1923 (rev. 1924)
!!!OPR: Příhody lišky Bystroušky (The Cunning Little Vixen), Opera in Three Acts
!!!filename: T136_Jan-w44p8-9m3-1h6m1-8.krn
**kern	**dynam	**kern	**dynam	**kern	**dynam	**kern	**dynam	**kern	**dynam	**kern	**text	**text	**text	**kern	**dynam	**kern	**dynam	**kern	**dynam	**kern	**dynam	**kern	**dynam
*grp:A	*	*grp:A	*	*grp:A	*	*grp:A	*	*grp:A	*	*grp:B	*	*	*	*grp:A	*	*grp:A	*	*grp:A	*	*grp:A	*	*grp:A	*
*part11	*	*part10	*	*part9	*	*part8	*	*part7	*	*part6	*	*	*	*part5	*	*part4	*	*part3	*	*part2	*	*part1	*
*staff11	*	*staff10	*	*staff9	*	*staff8	*	*staff7	*	*staff6	*	*	*	*staff5	*	*staff4	*	*staff3	*	*staff2	*	*staff1	*
*ICstr	*	*ICstr	*	*ICstr	*	*ICstr	*	*ICstr	*	*ICvox	*	*	*	*ICww	*	*ICww	*	*ICww	*	*ICww	*	*ICww	*
*Icbass	*	*Icello	*	*Iviola	*	*Ivioln	*	*Ivioln	*	*Ibarit	*	*	*	*Ifagot	*	*Iclars	*	*Ioboe	*	*Iflt	*	*Iflt	*
*I"Contrabass	*	*I"Violoncello	*	*I"Viola	*	*I"Violin II	*	*I"Violin I	*	*I"REVÍRNÍK	*	*	*	*I"Bassoon 1	*	*I"Clarinet in Bb 1	*	*I"Oboe 1	*	*I"Flute 2	*	*I"Flute 1	*
*I'cb	*	*I'vc	*	*I'vla	*	*I'vn	*	*I'vn	*	*I'REV.	*	*	*	*I'bn	*	*I'cl	*	*I'ob	*	*I'fl	*	*I'fl	*
*clefF4	*	*clefF4	*	*clefC3	*	*clefG2	*	*clefG2	*	*clefF4	*	*	*	*clefF4	*	*clefG2	*	*clefG2	*	*clefG2	*	*clefG2	*
*ITrd7c12	*	*	*	*	*	*	*	*	*	*	*	*	*	*	*	*ITrd1c2	*	*	*	*	*	*	*
*k[]	*	*k[]	*	*k[]	*	*k[]	*	*k[]	*	*k[]	*	*	*	*k[]	*	*k[b-e-]	*	*k[]	*	*k[]	*	*k[]	*
*C:	*	*C:	*	*C:	*	*C:	*	*C:	*	*C:	*	*	*	*C:	*	*B-:	*	*C:	*	*C:	*	*C:	*
!!LO:TX:tempo:a:t=[Meno mosso]\n[[half-dot]=56]
*M6/4	*	*M6/4	*	*M6/4	*	*M6/4	*	*M6/4	*	*M6/4	*	*	*	*M6/4	*	*M6/4	*	*M6/4	*	*M6/4	*	*M6/4	*
=89	=89	=89	=89	=89	=89	=89	=89	=89	=89	=89	=89	=89	=89	=89	=89	=89	=89	=89	=89	=89	=89	=89	=89
*	*	*	*	*tremolo	*	*	*	*	*	*	*	*	*	*	*	*	*	*	*	*	*	*	*
!	!	!	!	!	!LO:DY:ed=brack	!	!LO:DY:ed=brack	!	!	!	!	!	!	!	!	!	!	!	!LO:DY:ed=brack	!	!LO:DY:ed=brack	!	!LO:DY:ed=brack
2%3r	.	2%3r	.	32dLLL	p	8aa-X'L	p	2%3r	.	2%3r	.	.	.	2%3r	.	2%3r	.	(8dd'L	p	8aa-X'L	p	(8ggg-X'L	p
.	.	.	.	32d	.	.	.	.	.	.	.	.	.	.	.	.	.	.	.	.	.	.	.
.	.	.	.	32d	.	.	.	.	.	.	.	.	.	.	.	.	.	.	.	.	.	.	.
.	.	.	.	32d	.	.	.	.	.	.	.	.	.	.	.	.	.	.	.	.	.	.	.
.	.	.	.	32d	.	8aa-'J	.	.	.	.	.	.	.	.	.	.	.	8dd'	.	8aa-'J	.	8ggg-'	.
.	.	.	.	32d	.	.	.	.	.	.	.	.	.	.	.	.	.	.	.	.	.	.	.
.	.	.	.	32d	.	.	.	.	.	.	.	.	.	.	.	.	.	.	.	.	.	.	.
.	.	.	.	32d	.	.	.	.	.	.	.	.	.	.	.	.	.	.	.	.	.	.	.
.	.	.	.	32d	.	4r	.	.	.	.	.	.	.	.	.	.	.	8b-X	.	4r	.	8ddd	.
.	.	.	.	32d	.	.	.	.	.	.	.	.	.	.	.	.	.	.	.	.	.	.	.
.	.	.	.	32d	.	.	.	.	.	.	.	.	.	.	.	.	.	.	.	.	.	.	.
.	.	.	.	32d	.	.	.	.	.	.	.	.	.	.	.	.	.	.	.	.	.	.	.
.	.	.	.	32d	.	.	.	.	.	.	.	.	.	.	.	.	.	8f-X	.	.	.	8aa-X	.
.	.	.	.	32d	.	.	.	.	.	.	.	.	.	.	.	.	.	.	.	.	.	.	.
.	.	.	.	32d	.	.	.	.	.	.	.	.	.	.	.	.	.	.	.	.	.	.	.
.	.	.	.	32d	.	.	.	.	.	.	.	.	.	.	.	.	.	.	.	.	.	.	.
.	.	.	.	32d	.	4r	.	.	.	.	.	.	.	.	.	.	.	8dd	.	4r	.	8ggg-	.
.	.	.	.	32d	.	.	.	.	.	.	.	.	.	.	.	.	.	.	.	.	.	.	.
.	.	.	.	32d	.	.	.	.	.	.	.	.	.	.	.	.	.	.	.	.	.	.	.
.	.	.	.	32d	.	.	.	.	.	.	.	.	.	.	.	.	.	.	.	.	.	.	.
.	.	.	.	32d	.	.	.	.	.	.	.	.	.	.	.	.	.	8b-J	.	.	.	8dddJ	.
.	.	.	.	32d	.	.	.	.	.	.	.	.	.	.	.	.	.	.	.	.	.	.	.
.	.	.	.	32d	.	.	.	.	.	.	.	.	.	.	.	.	.	.	.	.	.	.	.
.	.	.	.	32d	.	.	.	.	.	.	.	.	.	.	.	.	.	.	.	.	.	.	.
.	.	.	.	32d	.	2.r	.	.	.	.	.	.	.	.	.	.	.	8f-L	.	2.r	.	8aa-L	.
.	.	.	.	32d	.	.	.	.	.	.	.	.	.	.	.	.	.	.	.	.	.	.	.
.	.	.	.	32d	.	.	.	.	.	.	.	.	.	.	.	.	.	.	.	.	.	.	.
.	.	.	.	32d	.	.	.	.	.	.	.	.	.	.	.	.	.	.	.	.	.	.	.
.	.	.	.	32d	.	.	.	.	.	.	.	.	.	.	.	.	.	8dd	.	.	.	8ggg-	.
.	.	.	.	32d	.	.	.	.	.	.	.	.	.	.	.	.	.	.	.	.	.	.	.
.	.	.	.	32d	.	.	.	.	.	.	.	.	.	.	.	.	.	.	.	.	.	.	.
.	.	.	.	32d	.	.	.	.	.	.	.	.	.	.	.	.	.	.	.	.	.	.	.
.	.	.	.	32d	.	.	.	.	.	.	.	.	.	.	.	.	.	8b-	.	.	.	8ddd	.
.	.	.	.	32d	.	.	.	.	.	.	.	.	.	.	.	.	.	.	.	.	.	.	.
.	.	.	.	32d	.	.	.	.	.	.	.	.	.	.	.	.	.	.	.	.	.	.	.
.	.	.	.	32d	.	.	.	.	.	.	.	.	.	.	.	.	.	.	.	.	.	.	.
.	.	.	.	32d	.	.	.	.	.	.	.	.	.	.	.	.	.	8f-J)	.	.	.	8aa-J)	.
.	.	.	.	32d	.	.	.	.	.	.	.	.	.	.	.	.	.	.	.	.	.	.	.
.	.	.	.	32d	.	.	.	.	.	.	.	.	.	.	.	.	.	.	.	.	.	.	.
.	.	.	.	32d	.	.	.	.	.	.	.	.	.	.	.	.	.	.	.	.	.	.	.
.	.	.	.	32d	.	.	.	.	.	.	.	.	.	.	.	.	.	4r	.	.	.	4r	.
.	.	.	.	32d	.	.	.	.	.	.	.	.	.	.	.	.	.	.	.	.	.	.	.
.	.	.	.	32d	.	.	.	.	.	.	.	.	.	.	.	.	.	.	.	.	.	.	.
.	.	.	.	32d	.	.	.	.	.	.	.	.	.	.	.	.	.	.	.	.	.	.	.
.	.	.	.	32d	.	.	.	.	.	.	.	.	.	.	.	.	.	.	.	.	.	.	.
.	.	.	.	32d	.	.	.	.	.	.	.	.	.	.	.	.	.	.	.	.	.	.	.
.	.	.	.	32d	.	.	.	.	.	.	.	.	.	.	.	.	.	.	.	.	.	.	.
.	.	.	.	32dJJJ	.	.	.	.	.	.	.	.	.	.	.	.	.	.	.	.	.	.	.
=90	=90	=90	=90	=90	=90	=90	=90	=90	=90	=90	=90	=90	=90	=90	=90	=90	=90	=90	=90	=90	=90	=90	=90
*	*	*	*	*	*	*	*	*	*	*^	*	*	*	*	*	*	*	*	*	*	*	*	*
!	!	!	!LO:DY:ed=brack	!	!	!	!	!	!LO:DY:ed=brack	!	!	!	!	!	!	!LO:DY:ed=brack	!	!	!	!	!	!	!	!
2%3r	.	(8B-X'L	p	32B-XLLL	.	8dd'L	.	(<8dd'L	p	2.ryy	2.r	.	.	.	(8B-X'L	p	2%3r	.	2%3r	.	2%3r	.	2%3r	.
.	.	.	.	32B-X	.	.	.	.	.	.	.	.	.	.	.	.	.	.	.	.	.	.	.	.
.	.	.	.	32B-X	.	.	.	.	.	.	.	.	.	.	.	.	.	.	.	.	.	.	.	.
.	.	.	.	32B-X	.	.	.	.	.	.	.	.	.	.	.	.	.	.	.	.	.	.	.	.
.	.	8B-'	.	32B-X	.	8dd'J	.	8dd'	.	.	.	.	.	.	8B-'	.	.	.	.	.	.	.	.	.
.	.	.	.	32B-X	.	.	.	.	.	.	.	.	.	.	.	.	.	.	.	.	.	.	.	.
.	.	.	.	32B-X	.	.	.	.	.	.	.	.	.	.	.	.	.	.	.	.	.	.	.	.
.	.	.	.	32B-X	.	.	.	.	.	.	.	.	.	.	.	.	.	.	.	.	.	.	.	.
.	.	8G-X	.	32B-X	.	4r	.	8b-X	.	.	.	.	.	.	8G-X	.	.	.	.	.	.	.	.	.
.	.	.	.	32B-X	.	.	.	.	.	.	.	.	.	.	.	.	.	.	.	.	.	.	.	.
.	.	.	.	32B-X	.	.	.	.	.	.	.	.	.	.	.	.	.	.	.	.	.	.	.	.
.	.	.	.	32B-X	.	.	.	.	.	.	.	.	.	.	.	.	.	.	.	.	.	.	.	.
.	.	8C	.	32B-X	.	.	.	8f-X	.	.	.	.	.	.	8CJ)	.	.	.	.	.	.	.	.	.
.	.	.	.	32B-X	.	.	.	.	.	.	.	.	.	.	.	.	.	.	.	.	.	.	.	.
.	.	.	.	32B-X	.	.	.	.	.	.	.	.	.	.	.	.	.	.	.	.	.	.	.	.
.	.	.	.	32B-X	.	.	.	.	.	.	.	.	.	.	.	.	.	.	.	.	.	.	.	.
.	.	8B-	.	32B-X	.	4r	.	8dd	.	.	.	.	.	.	4r	.	.	.	.	.	.	.	.	.
.	.	.	.	32B-X	.	.	.	.	.	.	.	.	.	.	.	.	.	.	.	.	.	.	.	.
.	.	.	.	32B-X	.	.	.	.	.	.	.	.	.	.	.	.	.	.	.	.	.	.	.	.
.	.	.	.	32B-X	.	.	.	.	.	.	.	.	.	.	.	.	.	.	.	.	.	.	.	.
.	.	8G-J	.	32B-X	.	.	.	8b-J	.	.	.	.	.	.	.	.	.	.	.	.	.	.	.	.
.	.	.	.	32B-X	.	.	.	.	.	.	.	.	.	.	.	.	.	.	.	.	.	.	.	.
.	.	.	.	32B-X	.	.	.	.	.	.	.	.	.	.	.	.	.	.	.	.	.	.	.	.
.	.	.	.	32B-X	.	.	.	.	.	.	.	.	.	.	.	.	.	.	.	.	.	.	.	.
*	*	*	*	*	*	*	*	*	*	*Xtuplet	*tuplet	*	*	*	*	*	*	*	*	*	*	*	*	*
!	!	!	!	!	!	!	!	!	!	!	!LO:TUP:num=2	!	!	!	!	!	!	!	!	!	!	!	!	!
.	.	8CL	.	32B-X	.	2.r	.	8f-L	.	16%3ryy	16%3F-X	I	Spo-	Ob's	2.r	.	.	.	.	.	.	.	.	.
.	.	.	.	32B-X	.	.	.	.	.	.	.	.	.	.	.	.	.	.	.	.	.	.	.	.
.	.	.	.	32B-X	.	.	.	.	.	.	.	.	.	.	.	.	.	.	.	.	.	.	.	.
.	.	.	.	32B-X	.	.	.	.	.	.	.	.	.	.	.	.	.	.	.	.	.	.	.	.
.	.	8B-	.	32B-X	.	.	.	8dd	.	.	.	.	.	.	.	.	.	.	.	.	.	.	.	.
.	.	.	.	32B-X	.	.	.	.	.	.	.	.	.	.	.	.	.	.	.	.	.	.	.	.
.	.	.	.	32B-X	.	.	.	.	.	16%3ryy	16%3F-	must	leh-	wohl	.	.	.	.	.	.	.	.	.	.
.	.	.	.	32B-X	.	.	.	.	.	.	.	.	.	.	.	.	.	.	.	.	.	.	.	.
.	.	8G-	.	32B-X	.	.	.	8b-	.	.	.	.	.	.	.	.	.	.	.	.	.	.	.	.
.	.	.	.	32B-X	.	.	.	.	.	.	.	.	.	.	.	.	.	.	.	.	.	.	.	.
.	.	.	.	32B-X	.	.	.	.	.	.	.	.	.	.	.	.	.	.	.	.	.	.	.	.
.	.	.	.	32B-X	.	.	.	.	.	.	.	.	.	.	.	.	.	.	.	.	.	.	.	.
.	.	8CJ)	.	32B-X	.	.	.	8f-J)	.	16%3ryy	16%3F-	rest	nu	noch	.	.	.	.	.	.	.	.	.	.
.	.	.	.	32B-X	.	.	.	.	.	.	.	.	.	.	.	.	.	.	.	.	.	.	.	.
.	.	.	.	32B-X	.	.	.	.	.	.	.	.	.	.	.	.	.	.	.	.	.	.	.	.
.	.	.	.	32B-X	.	.	.	.	.	.	.	.	.	.	.	.	.	.	.	.	.	.	.	.
.	.	4r	.	32B-X	.	.	.	4r	.	.	.	.	.	.	.	.	.	.	.	.	.	.	.	.
.	.	.	.	32B-X	.	.	.	.	.	.	.	.	.	.	.	.	.	.	.	.	.	.	.	.
.	.	.	.	32B-X	.	.	.	.	.	\32%3G-N	/16%3G-X	my	si	für	.	.	.	.	.	.	.	.	.	.
.	.	.	.	32B-X	.	.	.	.	.	.	.	.	.	.	.	.	.	.	.	.	.	.	.	.
.	.	.	.	32B-X	.	.	.	.	.	.	.	.	.	.	.	.	.	.	.	.	.	.	.	.
.	.	.	.	32B-X	.	.	.	.	.	\32%3G-N	.	.	.	ein	.	.	.	.	.	.	.	.	.	.
.	.	.	.	32B-X	.	.	.	.	.	.	.	.	.	.	.	.	.	.	.	.	.	.	.	.
.	.	.	.	32B-XJJJ	.	.	.	.	.	.	.	.	.	.	.	.	.	.	.	.	.	.	.	.
*	*	*	*	*	*	*	*	*	*	*v	*v	*	*	*	*	*	*	*	*	*	*	*	*	*
=91	=91	=91	=91	=91	=91	=91	=91	=91	=91	=91	=91	=91	=91	=91	=91	=91	=91	=91	=91	=91	=91	=91	=91
!	!	!	!	!	!	!	!	!	!	!LO:TUP:num=2	!	!	!	!	!	!	!	!	!	!	!	!	!
2%3r	.	(8B-X'L	.	32B-XLLL	.	8dd'L	.	(<8dd'L	.	16%3B-X	legs	na	Schläfchen	(8B-X'L	.	2%3r	.	2%3r	.	2%3r	.	2%3r	.
.	.	.	.	32B-X	.	.	.	.	.	.	.	.	.	.	.	.	.	.	.	.	.	.	.
.	.	.	.	32B-X	.	.	.	.	.	.	.	.	.	.	.	.	.	.	.	.	.	.	.
.	.	.	.	32B-X	.	.	.	.	.	.	.	.	.	.	.	.	.	.	.	.	.	.	.
.	.	8B-'	.	32B-X	.	8dd'J	.	8dd'	.	.	.	.	.	8B-'	.	.	.	.	.	.	.	.	.
.	.	.	.	32B-X	.	.	.	.	.	.	.	.	.	.	.	.	.	.	.	.	.	.	.
.	.	.	.	32B-X	.	.	.	.	.	16%3B-	a	chvil-	.	.	.	.	.	.	.	.	.	.	.
.	.	.	.	32B-X	.	.	.	.	.	.	.	.	.	.	.	.	.	.	.	.	.	.	.
.	.	8G-X	.	32B-X	.	4r	.	8b-X	.	.	.	.	.	8G-X	.	.	.	.	.	.	.	.	.
.	.	.	.	32B-X	.	.	.	.	.	.	.	.	.	.	.	.	.	.	.	.	.	.	.
.	.	.	.	32B-X	.	.	.	.	.	.	.	.	.	.	.	.	.	.	.	.	.	.	.
.	.	.	.	32B-X	.	.	.	.	.	.	.	.	.	.	.	.	.	.	.	.	.	.	.
.	.	8C	.	32B-X	.	.	.	8f-X	.	16%3B-	moment.	či-	aushält?	8CJ)	.	.	.	.	.	.	.	.	.
.	.	.	.	32B-X	.	.	.	.	.	.	.	.	.	.	.	.	.	.	.	.	.	.	.
.	.	.	.	32B-X	.	.	.	.	.	.	.	.	.	.	.	.	.	.	.	.	.	.	.
.	.	.	.	32B-X	.	.	.	.	.	.	.	.	.	.	.	.	.	.	.	.	.	.	.
.	.	8B-	.	32B-X	.	4r	.	8dd	.	.	.	.	.	4r	.	.	.	.	.	.	.	.	.
.	.	.	.	32B-X	.	.	.	.	.	.	.	.	.	.	.	.	.	.	.	.	.	.	.
.	.	.	.	32B-X	.	.	.	.	.	16%3B-	.	čku	.	.	.	.	.	.	.	.	.	.	.
.	.	.	.	32B-X	.	.	.	.	.	.	.	.	.	.	.	.	.	.	.	.	.	.	.
.	.	8G-J	.	32B-X	.	.	.	8b-J	.	.	.	.	.	.	.	.	.	.	.	.	.	.	.
.	.	.	.	32B-X	.	.	.	.	.	.	.	.	.	.	.	.	.	.	.	.	.	.	.
.	.	.	.	32B-X	.	.	.	.	.	.	.	.	.	.	.	.	.	.	.	.	.	.	.
.	.	.	.	32B-X	.	.	.	.	.	.	.	.	.	.	.	.	.	.	.	.	.	.	.
.	.	8CL	.	32B-X	.	2.r	.	8f-L	.	2.r	.	.	.	2.r	.	.	.	.	.	.	.	.	.
.	.	.	.	32B-X	.	.	.	.	.	.	.	.	.	.	.	.	.	.	.	.	.	.	.
.	.	.	.	32B-X	.	.	.	.	.	.	.	.	.	.	.	.	.	.	.	.	.	.	.
.	.	.	.	32B-X	.	.	.	.	.	.	.	.	.	.	.	.	.	.	.	.	.	.	.
.	.	8B-	.	32B-X	.	.	.	8dd	.	.	.	.	.	.	.	.	.	.	.	.	.	.	.
.	.	.	.	32B-X	.	.	.	.	.	.	.	.	.	.	.	.	.	.	.	.	.	.	.
.	.	.	.	32B-X	.	.	.	.	.	.	.	.	.	.	.	.	.	.	.	.	.	.	.
.	.	.	.	32B-X	.	.	.	.	.	.	.	.	.	.	.	.	.	.	.	.	.	.	.
.	.	8G-	.	32B-X	.	.	.	8b-	.	.	.	.	.	.	.	.	.	.	.	.	.	.	.
.	.	.	.	32B-X	.	.	.	.	.	.	.	.	.	.	.	.	.	.	.	.	.	.	.
.	.	.	.	32B-X	.	.	.	.	.	.	.	.	.	.	.	.	.	.	.	.	.	.	.
.	.	.	.	32B-X	.	.	.	.	.	.	.	.	.	.	.	.	.	.	.	.	.	.	.
.	.	8CJ)	.	32B-X	.	.	.	8f-J)	.	.	.	.	.	.	.	.	.	.	.	.	.	.	.
.	.	.	.	32B-X	.	.	.	.	.	.	.	.	.	.	.	.	.	.	.	.	.	.	.
.	.	.	.	32B-X	.	.	.	.	.	.	.	.	.	.	.	.	.	.	.	.	.	.	.
.	.	.	.	32B-X	.	.	.	.	.	.	.	.	.	.	.	.	.	.	.	.	.	.	.
.	.	4r	.	32B-X	.	.	.	4r	.	.	.	.	.	.	.	.	.	.	.	.	.	.	.
.	.	.	.	32B-X	.	.	.	.	.	.	.	.	.	.	.	.	.	.	.	.	.	.	.
.	.	.	.	32B-X	.	.	.	.	.	.	.	.	.	.	.	.	.	.	.	.	.	.	.
.	.	.	.	32B-X	.	.	.	.	.	.	.	.	.	.	.	.	.	.	.	.	.	.	.
.	.	.	.	32B-X	.	.	.	.	.	.	.	.	.	.	.	.	.	.	.	.	.	.	.
.	.	.	.	32B-X	.	.	.	.	.	.	.	.	.	.	.	.	.	.	.	.	.	.	.
.	.	.	.	32B-X	.	.	.	.	.	.	.	.	.	.	.	.	.	.	.	.	.	.	.
.	.	.	.	32B-XJJJ	.	.	.	.	.	.	.	.	.	.	.	.	.	.	.	.	.	.	.
!!pagebreak:original
!!LO:REH:t=6
=92	=92	=92	=92	=92	=92	=92	=92	=92	=92	=92	=92	=92	=92	=92	=92	=92	=92	=92	=92	=92	=92	=92	=92
2%3r	.	2%3r	.	32B-XLLL	.	8ee'L	.	2%3r	.	2%3r	.	.	.	2%3r	.	(8b-'L	pp	2%3r	.	8ee'L	pp	(8ddd'L	.
.	.	.	.	32B-X	.	.	.	.	.	.	.	.	.	.	.	.	.	.	.	.	.	.	.
.	.	.	.	32B-X	.	.	.	.	.	.	.	.	.	.	.	.	.	.	.	.	.	.	.
.	.	.	.	32B-X	.	.	.	.	.	.	.	.	.	.	.	.	.	.	.	.	.	.	.
.	.	.	.	32B-X	.	8ee'J	.	.	.	.	.	.	.	.	.	8b-'	.	.	.	8ee'J	.	8ddd'	.
.	.	.	.	32B-X	.	.	.	.	.	.	.	.	.	.	.	.	.	.	.	.	.	.	.
.	.	.	.	32B-X	.	.	.	.	.	.	.	.	.	.	.	.	.	.	.	.	.	.	.
.	.	.	.	32B-X	.	.	.	.	.	.	.	.	.	.	.	.	.	.	.	.	.	.	.
.	.	.	.	32B-X	.	4r	.	.	.	.	.	.	.	.	.	8g-X	.	.	.	4r	.	8bb-X	.
.	.	.	.	32B-X	.	.	.	.	.	.	.	.	.	.	.	.	.	.	.	.	.	.	.
.	.	.	.	32B-X	.	.	.	.	.	.	.	.	.	.	.	.	.	.	.	.	.	.	.
.	.	.	.	32B-X	.	.	.	.	.	.	.	.	.	.	.	.	.	.	.	.	.	.	.
.	.	.	.	32B-X	.	.	.	.	.	.	.	.	.	.	.	8c	.	.	.	.	.	8ff-X	.
.	.	.	.	32B-X	.	.	.	.	.	.	.	.	.	.	.	.	.	.	.	.	.	.	.
.	.	.	.	32B-X	.	.	.	.	.	.	.	.	.	.	.	.	.	.	.	.	.	.	.
.	.	.	.	32B-X	.	.	.	.	.	.	.	.	.	.	.	.	.	.	.	.	.	.	.
.	.	.	.	32B-X	.	4r	.	.	.	.	.	.	.	.	.	8b-	.	.	.	4r	.	8ddd	.
.	.	.	.	32B-X	.	.	.	.	.	.	.	.	.	.	.	.	.	.	.	.	.	.	.
.	.	.	.	32B-X	.	.	.	.	.	.	.	.	.	.	.	.	.	.	.	.	.	.	.
.	.	.	.	32B-X	.	.	.	.	.	.	.	.	.	.	.	.	.	.	.	.	.	.	.
.	.	.	.	32B-X	.	.	.	.	.	.	.	.	.	.	.	8g-J	.	.	.	.	.	8bb-J	.
.	.	.	.	32B-X	.	.	.	.	.	.	.	.	.	.	.	.	.	.	.	.	.	.	.
.	.	.	.	32B-X	.	.	.	.	.	.	.	.	.	.	.	.	.	.	.	.	.	.	.
.	.	.	.	32B-X	.	.	.	.	.	.	.	.	.	.	.	.	.	.	.	.	.	.	.
.	.	.	.	32B-X	.	2.r	.	.	.	.	.	.	.	.	.	8cL	.	.	.	2.r	.	8ff-L	.
.	.	.	.	32B-X	.	.	.	.	.	.	.	.	.	.	.	.	.	.	.	.	.	.	.
.	.	.	.	32B-X	.	.	.	.	.	.	.	.	.	.	.	.	.	.	.	.	.	.	.
.	.	.	.	32B-X	.	.	.	.	.	.	.	.	.	.	.	.	.	.	.	.	.	.	.
.	.	.	.	32B-X	.	.	.	.	.	.	.	.	.	.	.	8b-	.	.	.	.	.	8ddd	.
.	.	.	.	32B-X	.	.	.	.	.	.	.	.	.	.	.	.	.	.	.	.	.	.	.
.	.	.	.	32B-X	.	.	.	.	.	.	.	.	.	.	.	.	.	.	.	.	.	.	.
.	.	.	.	32B-X	.	.	.	.	.	.	.	.	.	.	.	.	.	.	.	.	.	.	.
.	.	.	.	32B-X	.	.	.	.	.	.	.	.	.	.	.	8g-	.	.	.	.	.	8bb-	.
.	.	.	.	32B-X	.	.	.	.	.	.	.	.	.	.	.	.	.	.	.	.	.	.	.
.	.	.	.	32B-X	.	.	.	.	.	.	.	.	.	.	.	.	.	.	.	.	.	.	.
.	.	.	.	32B-X	.	.	.	.	.	.	.	.	.	.	.	.	.	.	.	.	.	.	.
.	.	.	.	32B-X	.	.	.	.	.	.	.	.	.	.	.	8cJ)	.	.	.	.	.	8ff-J)	.
.	.	.	.	32B-X	.	.	.	.	.	.	.	.	.	.	.	.	.	.	.	.	.	.	.
.	.	.	.	32B-X	.	.	.	.	.	.	.	.	.	.	.	.	.	.	.	.	.	.	.
.	.	.	.	32B-X	.	.	.	.	.	.	.	.	.	.	.	.	.	.	.	.	.	.	.
.	.	.	.	32B-X	.	.	.	.	.	.	.	.	.	.	.	4r	.	.	.	.	.	4r	.
.	.	.	.	32B-X	.	.	.	.	.	.	.	.	.	.	.	.	.	.	.	.	.	.	.
.	.	.	.	32B-X	.	.	.	.	.	.	.	.	.	.	.	.	.	.	.	.	.	.	.
.	.	.	.	32B-X	.	.	.	.	.	.	.	.	.	.	.	.	.	.	.	.	.	.	.
.	.	.	.	32B-X	.	.	.	.	.	.	.	.	.	.	.	.	.	.	.	.	.	.	.
.	.	.	.	32B-X	.	.	.	.	.	.	.	.	.	.	.	.	.	.	.	.	.	.	.
.	.	.	.	32B-X	.	.	.	.	.	.	.	.	.	.	.	.	.	.	.	.	.	.	.
.	.	.	.	32B-XJJJ	.	.	.	.	.	.	.	.	.	.	.	.	.	.	.	.	.	.	.
=93	=93	=93	=93	=93	=93	=93	=93	=93	=93	=93	=93	=93	=93	=93	=93	=93	=93	=93	=93	=93	=93	=93	=93
2%3r	.	2%3r	.	32B-XLLL	.	8ee'L	.	2%3r	.	2%3r	.	.	.	2%3r	.	(8b-'L	.	2%3r	.	8ee'L	.	(8ddd'L	.
.	.	.	.	32B-X	.	.	.	.	.	.	.	.	.	.	.	.	.	.	.	.	.	.	.
.	.	.	.	32B-X	.	.	.	.	.	.	.	.	.	.	.	.	.	.	.	.	.	.	.
.	.	.	.	32B-X	.	.	.	.	.	.	.	.	.	.	.	.	.	.	.	.	.	.	.
.	.	.	.	32B-X	.	8ee'J	.	.	.	.	.	.	.	.	.	8b-'	.	.	.	8ee'J	.	8ddd'	.
.	.	.	.	32B-X	.	.	.	.	.	.	.	.	.	.	.	.	.	.	.	.	.	.	.
.	.	.	.	32B-X	.	.	.	.	.	.	.	.	.	.	.	.	.	.	.	.	.	.	.
.	.	.	.	32B-X	.	.	.	.	.	.	.	.	.	.	.	.	.	.	.	.	.	.	.
.	.	.	.	32B-X	.	4r	.	.	.	.	.	.	.	.	.	8g-X	.	.	.	4r	.	8bb-X	.
.	.	.	.	32B-X	.	.	.	.	.	.	.	.	.	.	.	.	.	.	.	.	.	.	.
.	.	.	.	32B-X	.	.	.	.	.	.	.	.	.	.	.	.	.	.	.	.	.	.	.
.	.	.	.	32B-X	.	.	.	.	.	.	.	.	.	.	.	.	.	.	.	.	.	.	.
.	.	.	.	32B-X	.	.	.	.	.	.	.	.	.	.	.	8c	.	.	.	.	.	8ff-X	.
.	.	.	.	32B-X	.	.	.	.	.	.	.	.	.	.	.	.	.	.	.	.	.	.	.
.	.	.	.	32B-X	.	.	.	.	.	.	.	.	.	.	.	.	.	.	.	.	.	.	.
.	.	.	.	32B-X	.	.	.	.	.	.	.	.	.	.	.	.	.	.	.	.	.	.	.
.	.	.	.	32B-X	.	4r	.	.	.	.	.	.	.	.	.	8b-	.	.	.	4r	.	8ddd	.
.	.	.	.	32B-X	.	.	.	.	.	.	.	.	.	.	.	.	.	.	.	.	.	.	.
.	.	.	.	32B-X	.	.	.	.	.	.	.	.	.	.	.	.	.	.	.	.	.	.	.
.	.	.	.	32B-X	.	.	.	.	.	.	.	.	.	.	.	.	.	.	.	.	.	.	.
.	.	.	.	32B-X	.	.	.	.	.	.	.	.	.	.	.	8g-J	.	.	.	.	.	8bb-J	.
.	.	.	.	32B-X	.	.	.	.	.	.	.	.	.	.	.	.	.	.	.	.	.	.	.
.	.	.	.	32B-X	.	.	.	.	.	.	.	.	.	.	.	.	.	.	.	.	.	.	.
.	.	.	.	32B-X	.	.	.	.	.	.	.	.	.	.	.	.	.	.	.	.	.	.	.
.	.	.	.	32B-X	.	2.r	.	.	.	.	.	.	.	.	.	8cL	.	.	.	2.r	.	8ff-L	.
.	.	.	.	32B-X	.	.	.	.	.	.	.	.	.	.	.	.	.	.	.	.	.	.	.
.	.	.	.	32B-X	.	.	.	.	.	.	.	.	.	.	.	.	.	.	.	.	.	.	.
.	.	.	.	32B-X	.	.	.	.	.	.	.	.	.	.	.	.	.	.	.	.	.	.	.
.	.	.	.	32B-X	.	.	.	.	.	.	.	.	.	.	.	8b-	.	.	.	.	.	8ddd	.
.	.	.	.	32B-X	.	.	.	.	.	.	.	.	.	.	.	.	.	.	.	.	.	.	.
.	.	.	.	32B-X	.	.	.	.	.	.	.	.	.	.	.	.	.	.	.	.	.	.	.
.	.	.	.	32B-X	.	.	.	.	.	.	.	.	.	.	.	.	.	.	.	.	.	.	.
.	.	.	.	32B-X	.	.	.	.	.	.	.	.	.	.	.	8g-	.	.	.	.	.	8bb-	.
.	.	.	.	32B-X	.	.	.	.	.	.	.	.	.	.	.	.	.	.	.	.	.	.	.
.	.	.	.	32B-X	.	.	.	.	.	.	.	.	.	.	.	.	.	.	.	.	.	.	.
.	.	.	.	32B-X	.	.	.	.	.	.	.	.	.	.	.	.	.	.	.	.	.	.	.
.	.	.	.	32B-X	.	.	.	.	.	.	.	.	.	.	.	8cJ)	.	.	.	.	.	8ff-J)	.
.	.	.	.	32B-X	.	.	.	.	.	.	.	.	.	.	.	.	.	.	.	.	.	.	.
.	.	.	.	32B-X	.	.	.	.	.	.	.	.	.	.	.	.	.	.	.	.	.	.	.
.	.	.	.	32B-X	.	.	.	.	.	.	.	.	.	.	.	.	.	.	.	.	.	.	.
.	.	.	.	32B-X	.	.	.	.	.	.	.	.	.	.	.	4r	.	.	.	.	.	4r	.
.	.	.	.	32B-X	.	.	.	.	.	.	.	.	.	.	.	.	.	.	.	.	.	.	.
.	.	.	.	32B-X	.	.	.	.	.	.	.	.	.	.	.	.	.	.	.	.	.	.	.
.	.	.	.	32B-X	.	.	.	.	.	.	.	.	.	.	.	.	.	.	.	.	.	.	.
.	.	.	.	32B-X	.	.	.	.	.	.	.	.	.	.	.	.	.	.	.	.	.	.	.
.	.	.	.	32B-X	.	.	.	.	.	.	.	.	.	.	.	.	.	.	.	.	.	.	.
.	.	.	.	32B-X	.	.	.	.	.	.	.	.	.	.	.	.	.	.	.	.	.	.	.
.	.	.	.	32B-XJJJ	.	.	.	.	.	.	.	.	.	.	.	.	.	.	.	.	.	.	.
=94	=94	=94	=94	=94	=94	=94	=94	=94	=94	=94	=94	=94	=94	=94	=94	=94	=94	=94	=94	=94	=94	=94	=94
2%3r	.	(8A-X'L	.	32A-XLLL	.	8cc'L	.	(8cc'L	.	2%3r	.	.	.	(8A-X'L	.	2.r	.	2.r	.	2.r	.	2.r	.
.	.	.	.	32A-X	.	.	.	.	.	.	.	.	.	.	.	.	.	.	.	.	.	.	.
.	.	.	.	32A-X	.	.	.	.	.	.	.	.	.	.	.	.	.	.	.	.	.	.	.
.	.	.	.	32A-X	.	.	.	.	.	.	.	.	.	.	.	.	.	.	.	.	.	.	.
.	.	8A-'	.	32A-X	.	8cc'J	.	8cc'	.	.	.	.	.	8A-'	.	.	.	.	.	.	.	.	.
.	.	.	.	32A-X	.	.	.	.	.	.	.	.	.	.	.	.	.	.	.	.	.	.	.
.	.	.	.	32A-X	.	.	.	.	.	.	.	.	.	.	.	.	.	.	.	.	.	.	.
.	.	.	.	32A-X	.	.	.	.	.	.	.	.	.	.	.	.	.	.	.	.	.	.	.
.	.	8F-X	.	32A-X	.	4r	.	8a-X	.	.	.	.	.	8F-X	.	.	.	.	.	.	.	.	.
.	.	.	.	32A-X	.	.	.	.	.	.	.	.	.	.	.	.	.	.	.	.	.	.	.
.	.	.	.	32A-X	.	.	.	.	.	.	.	.	.	.	.	.	.	.	.	.	.	.	.
.	.	.	.	32A-X	.	.	.	.	.	.	.	.	.	.	.	.	.	.	.	.	.	.	.
.	.	8BB-X	.	32A-X	.	.	.	8d	.	.	.	.	.	8BB-XJ)	.	.	.	.	.	.	.	.	.
.	.	.	.	32A-X	.	.	.	.	.	.	.	.	.	.	.	.	.	.	.	.	.	.	.
.	.	.	.	32A-X	.	.	.	.	.	.	.	.	.	.	.	.	.	.	.	.	.	.	.
.	.	.	.	32A-X	.	.	.	.	.	.	.	.	.	.	.	.	.	.	.	.	.	.	.
.	.	8A-	.	32A-X	.	4r	.	8cc	.	.	.	.	.	4r	.	.	.	.	.	.	.	.	.
.	.	.	.	32A-X	.	.	.	.	.	.	.	.	.	.	.	.	.	.	.	.	.	.	.
.	.	.	.	32A-X	.	.	.	.	.	.	.	.	.	.	.	.	.	.	.	.	.	.	.
.	.	.	.	32A-X	.	.	.	.	.	.	.	.	.	.	.	.	.	.	.	.	.	.	.
.	.	8F-J	.	32A-X	.	.	.	8a-J	.	.	.	.	.	.	.	.	.	.	.	.	.	.	.
.	.	.	.	32A-X	.	.	.	.	.	.	.	.	.	.	.	.	.	.	.	.	.	.	.
.	.	.	.	32A-X	.	.	.	.	.	.	.	.	.	.	.	.	.	.	.	.	.	.	.
.	.	.	.	32A-X	.	.	.	.	.	.	.	.	.	.	.	.	.	.	.	.	.	.	.
.	.	8BB-L	.	32A-X	.	8dd'L	.	8dL	.	.	.	.	.	2.r	.	4r	.	4r	.	4r	.	4r	.
.	.	.	.	32A-X	.	.	.	.	.	.	.	.	.	.	.	.	.	.	.	.	.	.	.
.	.	.	.	32A-X	.	.	.	.	.	.	.	.	.	.	.	.	.	.	.	.	.	.	.
.	.	.	.	32A-X	.	.	.	.	.	.	.	.	.	.	.	.	.	.	.	.	.	.	.
.	.	8A-	.	32A-X	.	8dd'J	.	8cc	.	.	.	.	.	.	.	.	.	.	.	.	.	.	.
.	.	.	.	32A-X	.	.	.	.	.	.	.	.	.	.	.	.	.	.	.	.	.	.	.
.	.	.	.	32A-X	.	.	.	.	.	.	.	.	.	.	.	.	.	.	.	.	.	.	.
.	.	.	.	32A-X	.	.	.	.	.	.	.	.	.	.	.	.	.	.	.	.	.	.	.
.	.	8F-	.	32A-X	.	4r	.	8a-	.	.	.	.	.	.	.	(8B-L	.	8dd'L	.	8dd'L	.	(8ddL	.
.	.	.	.	32A-X	.	.	.	.	.	.	.	.	.	.	.	.	.	.	.	.	.	.	.
.	.	.	.	32A-X	.	.	.	.	.	.	.	.	.	.	.	.	.	.	.	.	.	.	.
.	.	.	.	32A-X	.	.	.	.	.	.	.	.	.	.	.	.	.	.	.	.	.	.	.
.	.	8BB-J)	.	32A-X	.	.	.	8dJ)	.	.	.	.	.	.	.	8a-	.	8dd'J	.	8dd'J	.	8ccc	.
.	.	.	.	32A-X	.	.	.	.	.	.	.	.	.	.	.	.	.	.	.	.	.	.	.
.	.	.	.	32A-X	.	.	.	.	.	.	.	.	.	.	.	.	.	.	.	.	.	.	.
.	.	.	.	32A-X	.	.	.	.	.	.	.	.	.	.	.	.	.	.	.	.	.	.	.
.	.	4r	.	32A-X	.	4r	.	4r	.	.	.	.	.	.	.	8f-X	.	4r	.	4r	.	8aa-X	.
.	.	.	.	32A-X	.	.	.	.	.	.	.	.	.	.	.	.	.	.	.	.	.	.	.
.	.	.	.	32A-X	.	.	.	.	.	.	.	.	.	.	.	.	.	.	.	.	.	.	.
.	.	.	.	32A-X	.	.	.	.	.	.	.	.	.	.	.	.	.	.	.	.	.	.	.
.	.	.	.	32A-X	.	.	.	.	.	.	.	.	.	.	.	8B-J)	.	.	.	.	.	8ddJ)	.
.	.	.	.	32A-X	.	.	.	.	.	.	.	.	.	.	.	.	.	.	.	.	.	.	.
.	.	.	.	32A-X	.	.	.	.	.	.	.	.	.	.	.	.	.	.	.	.	.	.	.
.	.	.	.	32A-XJJJ	.	.	.	.	.	.	.	.	.	.	.	.	.	.	.	.	.	.	.
!!pagebreak:original
=95	=95	=95	=95	=95	=95	=95	=95	=95	=95	=95	=95	=95	=95	=95	=95	=95	=95	=95	=95	=95	=95	=95	=95
2%3r	.	(8G-X'L	.	32G-XLLL	.	8b-X'L	.	(8b-X'L	.	2%3r	.	.	.	(8G-X'L	.	2.r	.	2.r	.	2.r	.	2.r	.
.	.	.	.	32G-X	.	.	.	.	.	.	.	.	.	.	.	.	.	.	.	.	.	.	.
.	.	.	.	32G-X	.	.	.	.	.	.	.	.	.	.	.	.	.	.	.	.	.	.	.
.	.	.	.	32G-X	.	.	.	.	.	.	.	.	.	.	.	.	.	.	.	.	.	.	.
.	.	8G-'	.	32G-X	.	8b-'J	.	8b-'	.	.	.	.	.	8G-'	.	.	.	.	.	.	.	.	.
.	.	.	.	32G-X	.	.	.	.	.	.	.	.	.	.	.	.	.	.	.	.	.	.	.
.	.	.	.	32G-X	.	.	.	.	.	.	.	.	.	.	.	.	.	.	.	.	.	.	.
.	.	.	.	32G-X	.	.	.	.	.	.	.	.	.	.	.	.	.	.	.	.	.	.	.
.	.	8Dn	.	32G-X	.	4r	.	8g-X	.	.	.	.	.	8Dn	.	.	.	.	.	.	.	.	.
.	.	.	.	32G-X	.	.	.	.	.	.	.	.	.	.	.	.	.	.	.	.	.	.	.
.	.	.	.	32G-X	.	.	.	.	.	.	.	.	.	.	.	.	.	.	.	.	.	.	.
.	.	.	.	32G-X	.	.	.	.	.	.	.	.	.	.	.	.	.	.	.	.	.	.	.
.	.	8AA-X	.	32G-X	.	.	.	8c	.	.	.	.	.	8AA-XJ)	.	.	.	.	.	.	.	.	.
.	.	.	.	32G-X	.	.	.	.	.	.	.	.	.	.	.	.	.	.	.	.	.	.	.
.	.	.	.	32G-X	.	.	.	.	.	.	.	.	.	.	.	.	.	.	.	.	.	.	.
.	.	.	.	32G-X	.	.	.	.	.	.	.	.	.	.	.	.	.	.	.	.	.	.	.
.	.	8G-	.	32G-X	.	4r	.	8b-	.	.	.	.	.	4r	.	.	.	.	.	.	.	.	.
.	.	.	.	32G-X	.	.	.	.	.	.	.	.	.	.	.	.	.	.	.	.	.	.	.
.	.	.	.	32G-X	.	.	.	.	.	.	.	.	.	.	.	.	.	.	.	.	.	.	.
.	.	.	.	32G-X	.	.	.	.	.	.	.	.	.	.	.	.	.	.	.	.	.	.	.
.	.	8DJ	.	32G-X	.	.	.	8g-J	.	.	.	.	.	.	.	.	.	.	.	.	.	.	.
.	.	.	.	32G-X	.	.	.	.	.	.	.	.	.	.	.	.	.	.	.	.	.	.	.
.	.	.	.	32G-X	.	.	.	.	.	.	.	.	.	.	.	.	.	.	.	.	.	.	.
.	.	.	.	32G-X	.	.	.	.	.	.	.	.	.	.	.	.	.	.	.	.	.	.	.
!	!	!	!LO:HP:t=dim.	!	!	!	!LO:HP:t=dim.	!	!LO:HP:t=dim.	!	!	!	!	!	!	!	!	!	!	!	!	!	!
.	.	8AA-L	>	32G-X	.	8cc'L	>	8cL	<	.	.	.	.	2.r	.	4r	.	4r	.	4r	.	4r	.
.	.	.	.	32G-X	.	.	.	.	.	.	.	.	.	.	.	.	.	.	.	.	.	.	.
.	.	.	.	32G-X	.	.	.	.	.	.	.	.	.	.	.	.	.	.	.	.	.	.	.
.	.	.	.	32G-X	.	.	.	.	.	.	.	.	.	.	.	.	.	.	.	.	.	.	.
.	.	8G-	.	32G-X	.	8cc'J	.	8b-	.	.	.	.	.	.	.	.	.	.	.	.	.	.	.
.	.	.	.	32G-X	.	.	.	.	.	.	.	.	.	.	.	.	.	.	.	.	.	.	.
.	.	.	.	32G-X	.	.	.	.	.	.	.	.	.	.	.	.	.	.	.	.	.	.	.
.	.	.	.	32G-X	.	.	.	.	.	.	.	.	.	.	.	.	.	.	.	.	.	.	.
!	!	!	!	!	!	!	!	!	!	!	!	!	!	!	!	!	!LO:HP:t=dim.	!	!LO:HP:t=dim.	!	!LO:HP:t=dim.	!	!LO:HP:t=dim.
.	.	8D	.	32G-X	.	4r	.	8g-	.	.	.	.	.	.	.	(8A-L	>	8cc'L	>	8cc'L	>	(8ccL	>
.	.	.	.	32G-X	.	.	.	.	.	.	.	.	.	.	.	.	.	.	.	.	.	.	.
.	.	.	.	32G-X	.	.	.	.	.	.	.	.	.	.	.	.	.	.	.	.	.	.	.
.	.	.	.	32G-X	.	.	.	.	.	.	.	.	.	.	.	.	.	.	.	.	.	.	.
.	.	8AA-J)	.	32G-X	.	.	.	8cJ)	.	.	.	.	.	.	.	8g-X	.	8cc'J	.	8cc'J	.	8bb-X	.
.	.	.	.	32G-X	.	.	.	.	.	.	.	.	.	.	.	.	.	.	.	.	.	.	.
.	.	.	.	32G-X	.	.	.	.	.	.	.	.	.	.	.	.	.	.	.	.	.	.	.
.	.	.	.	32G-X	.	.	.	.	.	.	.	.	.	.	.	.	.	.	.	.	.	.	.
.	.	4r	.	32G-X	.	4r	.	4r	.	.	.	.	.	.	.	8e--X	.	4r	.	4r	.	8gg-X	.
.	.	.	.	32G-X	.	.	.	.	.	.	.	.	.	.	.	.	.	.	.	.	.	.	.
.	.	.	.	32G-X	.	.	.	.	.	.	.	.	.	.	.	.	.	.	.	.	.	.	.
.	.	.	.	32G-X	.	.	.	.	.	.	.	.	.	.	.	.	.	.	.	.	.	.	.
.	.	.	.	32G-X	.	.	.	.	.	.	.	.	.	.	.	8A-J)	.	.	.	.	.	8ccJ)	.
.	.	.	.	32G-X	.	.	.	.	.	.	.	.	.	.	.	.	.	.	.	.	.	.	.
.	.	.	.	32G-X	.	.	.	.	.	.	.	.	.	.	.	.	.	.	.	.	.	.	.
.	.	.	.	32G-XJJJ	.	.	.	.	.	.	.	.	.	.	.	.	.	.	.	.	.	.	.
=96	=96	=96	=96	=96	=96	=9	=896	=96	=96	=96	=96	=96	=96	=96	=96	=96	=96	=96	=96	=96	=96	=96	=96
4r	.	(>8F-X'L	.	32F-XLLL	.	8a-X'L	.	(8a-X'L	.	2.r	.	.	.	(8F-X'L	.	2%3r	.	2%3r	.	2%3r	.	2%3r	.
.	.	.	.	32F-X	.	.	.	.	.	.	.	.	.	.	.	.	.	.	.	.	.	.	.
.	.	.	.	32F-X	.	.	.	.	.	.	.	.	.	.	.	.	.	.	.	.	.	.	.
.	.	.	.	32F-X	.	.	.	.	.	.	.	.	.	.	.	.	.	.	.	.	.	.	.
.	.	8F-'	.	32F-X	.	8a-'J	.	8a-'	.	.	.	.	.	8F-'	.	.	.	.	.	.	.	.	.
.	.	.	.	32F-X	.	.	.	.	.	.	.	.	.	.	.	.	.	.	.	.	.	.	.
.	.	.	.	32F-X	.	.	.	.	.	.	.	.	.	.	.	.	.	.	.	.	.	.	.
.	.	.	.	32F-X	.	.	.	.	.	.	.	.	.	.	.	.	.	.	.	.	.	.	.
8r	.	8C	.	32F-X	.	4r	.	8f-X	.	.	.	.	.	8C	.	.	.	.	.	.	.	.	.
.	.	.	.	32F-X	.	.	.	.	.	.	.	.	.	.	.	.	.	.	.	.	.	.	.
.	.	.	.	32F-X	.	.	.	.	.	.	.	.	.	.	.	.	.	.	.	.	.	.	.
.	.	.	.	32F-X	.	.	.	.	.	.	.	.	.	.	.	.	.	.	.	.	.	.	.
!LO:TX:a:t=pizz.	!	!	!	!	!	!	!	!	!	!	!	!	!	!	!	!	!	!	!	!	!	!	!
8GGG-X'	p	8GG-X	.	32F-X	.	.	.	8B-X	.	.	.	.	.	8GG-XJ)	.	.	.	.	.	.	.	.	.
.	.	.	.	32F-X	.	.	.	.	.	.	.	.	.	.	.	.	.	.	.	.	.	.	.
.	.	.	.	32F-X	.	.	.	.	.	.	.	.	.	.	.	.	.	.	.	.	.	.	.
.	.	.	.	32F-X	.	.	.	.	.	.	.	.	.	.	.	.	.	.	.	.	.	.	.
4r	.	8F-	.	32F-X	.	4r	.	8a-	.	.	.	.	.	4r	.	.	.	.	.	.	.	.	.
.	.	.	.	32F-X	.	.	.	.	.	.	.	.	.	.	.	.	.	.	.	.	.	.	.
.	.	.	.	32F-X	.	.	.	.	.	.	.	.	.	.	.	.	.	.	.	.	.	.	.
.	.	.	.	32F-X	.	.	.	.	.	.	.	.	.	.	.	.	.	.	.	.	.	.	.
.	.	8CJ	.	32F-X	.	.	.	8f-J	.	.	.	.	.	.	.	.	.	.	.	.	.	.	.
.	.	.	.	32F-X	.	.	.	.	.	.	.	.	.	.	.	.	.	.	.	.	.	.	.
.	.	.	.	32F-X	.	.	.	.	.	.	.	.	.	.	.	.	.	.	.	.	.	.	.
.	.	.	.	32F-X	.	.	.	.	.	.	.	.	.	.	.	.	.	.	.	.	.	.	.
8GGG-'	.	8GG-L	.	32F-X	.	2.r	.	8B-L	.	4r	.	.	.	2.r	.	.	.	.	.	.	.	.	.
.	.	.	.	32F-X	.	.	.	.	.	.	.	.	.	.	.	.	.	.	.	.	.	.	.
.	.	.	.	32F-X	.	.	.	.	.	.	.	.	.	.	.	.	.	.	.	.	.	.	.
.	.	.	.	32F-X	.	.	.	.	.	.	.	.	.	.	.	.	.	.	.	.	.	.	.
8r	.	8F-	.	32F-X	.	.	.	8a-	.	.	.	.	.	.	.	.	.	.	.	.	.	.	.
.	.	.	.	32F-X	.	.	.	.	.	.	.	.	.	.	.	.	.	.	.	.	.	.	.
.	.	.	.	32F-X	.	.	.	.	.	.	.	.	.	.	.	.	.	.	.	.	.	.	.
.	.	.	.	32F-X	.	.	.	.	.	.	.	.	.	.	.	.	.	.	.	.	.	.	.
4r	.	8C	.	32F-X	.	.	.	8f-	.	(8A-X	I	Pa-	An-	.	.	.	.	.	.	.	.	.	.
.	.	.	.	32F-X	.	.	.	.	.	.	.	.	.	.	.	.	.	.	.	.	.	.	.
.	.	.	.	32F-X	.	.	.	.	.	.	.	.	.	.	.	.	.	.	.	.	.	.	.
.	.	.	.	32F-X	.	.	.	.	.	.	.	.	.	.	.	.	.	.	.	.	.	.	.
.	.	8GG-J)	.	32F-X	.	.	.	8B-J)	.	8A-	shall	ní-	stand	.	.	.	.	.	.	.	.	.	.
.	.	.	.	32F-X	.	.	.	.	.	.	.	.	.	.	.	.	.	.	.	.	.	.	.
.	.	.	.	32F-X	.	.	.	.	.	.	.	.	.	.	.	.	.	.	.	.	.	.	.
.	.	.	.	32F-X	.	.	.	.	.	.	.	.	.	.	.	.	.	.	.	.	.	.	.
4r	.	4r	.	32F-X	.	.	.	4r	.	8A-	tell	mámě	auf	.	.	.	.	.	.	.	.	.	.
.	.	.	.	32F-X	.	.	.	.	.	.	.	.	.	.	.	.	.	.	.	.	.	.	.
.	.	.	.	32F-X	.	.	.	.	.	.	.	.	.	.	.	.	.	.	.	.	.	.	.
.	.	.	.	32F-X	.	.	.	.	.	.	.	.	.	.	.	.	.	.	.	.	.	.	.
.	.	.	.	32F-X	.	.	.	.	.	8A-	the	.	die	.	.	.	.	.	.	.	.	.	.
.	.	.	.	32F-X	.	.	.	.	.	.	.	.	.	.	.	.	.	.	.	.	.	.	.
.	.	.	.	32F-X	.	.	.	.	.	.	.	.	.	.	.	.	.	.	.	.	.	.	.
.	.	.	.	32F-XJJJ	.	.	.	.	.	.	.	.	.	.	.	.	.	.	.	.	.	.	.
=97	=97	=97	=97	=97	=97	=97	=97	=97	=97	=97	=97	=97	=97	=97	=97	=97	=97	=97	=97	=97	=97	=97	=97
*	*	*	*	*	*	*	*	*	*	*^	*	*	*	*	*	*	*	*	*	*	*	*	*
!	!	!	!	!	!	!	!	!	!	!	!LO:TUP:b	!	!	!	!	!LO:DY:ed=brack	!	!	!	!	!	!	!	!
4r	.	(8F-X'L	pp	32F-XLLL	pp	8a-X'L	pp	(8a-X'L	pp	4B-X	6B-N	miss-	řek-	Wil	(8F-X:'L	pp	2%3r	.	2%3r	.	2%3r	.	2%3r	.
.	.	.	.	32F-X	.	.	.	.	.	.	.	.	.	.	.	.	.	.	.	.	.	.	.	.
.	.	.	.	.	.	.	.	.	.	.	.	.	.	.	.	.	.	.	.	.	.	.	.	.
.	.	.	.	32F-X	.	.	.	.	.	.	.	.	.	.	.	.	.	.	.	.	.	.	.	.
.	.	.	.	.	.	.	.	.	.	.	.	.	.	.	.	.	.	.	.	.	.	.	.	.
.	.	.	.	32F-X	.	.	.	.	.	.	.	.	.	.	.	.	.	.	.	.	.	.	.	.
.	.	8F-'	.	32F-X	.	8a-'J	.	8a-'	.	.	.	.	.	.	8F-'	.	.	.	.	.	.	.	.	.
.	.	.	.	32F-X	.	.	.	.	.	.	.	.	.	.	.	.	.	.	.	.	.	.	.	.
.	.	.	.	.	.	.	.	.	.	.	6B-N	.	.	der	.	.	.	.	.	.	.	.	.	.
.	.	.	.	32F-X	.	.	.	.	.	.	.	.	.	.	.	.	.	.	.	.	.	.	.	.
.	.	.	.	.	.	.	.	.	.	.	.	.	.	.	.	.	.	.	.	.	.	.	.	.
.	.	.	.	32F-X	.	.	.	.	.	.	.	.	.	.	.	.	.	.	.	.	.	.	.	.
8r	.	8C	.	32F-X	.	4r	.	8f-X	.	4B-)	.	-us	nu	.	8C	.	.	.	.	.	.	.	.	.
.	.	.	.	32F-X	.	.	.	.	.	.	.	.	.	.	.	.	.	.	.	.	.	.	.	.
.	.	.	.	32F-X	.	.	.	.	.	.	.	.	.	.	.	.	.	.	.	.	.	.	.	.
.	.	.	.	.	.	.	.	.	.	.	.	.	.	.	.	.	.	.	.	.	.	.	.	.
.	.	.	.	.	.	.	.	.	.	.	6B-N	.	.	er	.	.	.	.	.	.	.	.	.	.
.	.	.	.	32F-X	.	.	.	.	.	.	.	.	.	.	.	.	.	.	.	.	.	.	.	.
8GGG-X'	.	8GG-X	.	32F-X	.	.	.	8B-X	.	.	.	.	.	.	8GG-XJ)	.	.	.	.	.	.	.	.	.
.	.	.	.	.	.	.	.	.	.	.	.	.	.	.	.	.	.	.	.	.	.	.	.	.
.	.	.	.	32F-X	.	.	.	.	.	.	.	.	.	.	.	.	.	.	.	.	.	.	.	.
.	.	.	.	32F-X	.	.	.	.	.	.	.	.	.	.	.	.	.	.	.	.	.	.	.	.
.	.	.	.	.	.	.	.	.	.	.	.	.	.	.	.	.	.	.	.	.	.	.	.	.
.	.	.	.	32F-X	.	.	.	.	.	.	.	.	.	.	.	.	.	.	.	.	.	.	.	.
4r	.	8F-	.	32F-X	.	4r	.	8a-	.	4r	4ryy	.	.	.	4r	.	.	.	.	.	.	.	.	.
.	.	.	.	32F-X	.	.	.	.	.	.	.	.	.	.	.	.	.	.	.	.	.	.	.	.
.	.	.	.	32F-X	.	.	.	.	.	.	.	.	.	.	.	.	.	.	.	.	.	.	.	.
.	.	.	.	32F-X	.	.	.	.	.	.	.	.	.	.	.	.	.	.	.	.	.	.	.	.
.	.	8CJ	.	32F-X	.	.	.	8f-J	.	.	.	.	.	.	.	.	.	.	.	.	.	.	.	.
.	.	.	.	32F-X	.	.	.	.	.	.	.	.	.	.	.	.	.	.	.	.	.	.	.	.
.	.	.	.	32F-X	.	.	.	.	.	.	.	.	.	.	.	.	.	.	.	.	.	.	.	.
.	.	.	.	32F-X	.	.	.	.	.	.	.	.	.	.	.	.	.	.	.	.	.	.	.	.
8GGG-'	.	8GG-L	.	32F-X	.	2.r	.	8B-L	.	2.r	2.ryy	.	.	.	2.r	.	.	.	.	.	.	.	.	.
.	.	.	.	32F-X	.	.	.	.	.	.	.	.	.	.	.	.	.	.	.	.	.	.	.	.
.	.	.	.	32F-X	.	.	.	.	.	.	.	.	.	.	.	.	.	.	.	.	.	.	.	.
.	.	.	.	32F-X	.	.	.	.	.	.	.	.	.	.	.	.	.	.	.	.	.	.	.	.
8r	.	8F-	.	32F-X	.	.	.	8a-	.	.	.	.	.	.	.	.	.	.	.	.	.	.	.	.
.	.	.	.	32F-X	.	.	.	.	.	.	.	.	.	.	.	.	.	.	.	.	.	.	.	.
.	.	.	.	32F-X	.	.	.	.	.	.	.	.	.	.	.	.	.	.	.	.	.	.	.	.
.	.	.	.	32F-X	.	.	.	.	.	.	.	.	.	.	.	.	.	.	.	.	.	.	.	.
4r	.	8C	.	32F-X	.	.	.	8f-	.	.	.	.	.	.	.	.	.	.	.	.	.	.	.	.
.	.	.	.	32F-X	.	.	.	.	.	.	.	.	.	.	.	.	.	.	.	.	.	.	.	.
.	.	.	.	32F-X	.	.	.	.	.	.	.	.	.	.	.	.	.	.	.	.	.	.	.	.
.	.	.	.	32F-X	.	.	.	.	.	.	.	.	.	.	.	.	.	.	.	.	.	.	.	.
.	.	8GG-J)	.	32F-X	.	.	.	8B-J)	.	.	.	.	.	.	.	.	.	.	.	.	.	.	.	.
.	.	.	.	32F-X	.	.	.	.	.	.	.	.	.	.	.	.	.	.	.	.	.	.	.	.
.	.	.	.	32F-X	.	.	.	.	.	.	.	.	.	.	.	.	.	.	.	.	.	.	.	.
.	.	.	.	32F-X	.	.	.	.	.	.	.	.	.	.	.	.	.	.	.	.	.	.	.	.
4r	.	4r	.	32F-X	.	.	.	4r	.	.	.	.	.	.	.	.	.	.	.	.	.	.	.	.
.	.	.	.	32F-X	.	.	.	.	.	.	.	.	.	.	.	.	.	.	.	.	.	.	.	.
.	.	.	.	32F-X	.	.	.	.	.	.	.	.	.	.	.	.	.	.	.	.	.	.	.	.
.	.	.	.	32F-X	.	.	.	.	.	.	.	.	.	.	.	.	.	.	.	.	.	.	.	.
.	.	.	.	32F-X	.	.	.	.	.	.	.	.	.	.	.	.	.	.	.	.	.	.	.	.
.	.	.	.	32F-X	.	.	.	.	.	.	.	.	.	.	.	.	.	.	.	.	.	.	.	.
.	.	.	.	32F-X	.	.	.	.	.	.	.	.	.	.	.	.	.	.	.	.	.	.	.	.
.	.	.	.	32F-XJJJ	.	.	.	.	.	.	.	.	.	.	.	.	.	.	.	.	.	.	.	.
*	*	*	*	*	*	*	*	*	*	*v	*v	*	*	*	*	*	*	*	*	*	*	*	*	*
=98	=98	=98	=98	=98	=98	=98	=98	=98	=98	=98	=98	=98	=98	=98	=98	=98	=98	=98	=98	=98	=98	=98	=98
*	*	*	*	*	*	*	*	*	*	*	*	*	*	*	*	*	*	*	*	*	*	*	*
*	*	*	*	*	*	*	*	*	*	*tuplet	*	*	*	*	*	*	*	*	*	*	*	*	*
4r	.	(8E'L	.	32B-XLLL	.	8a-X'L	.	(8a-X'L	.	2.r	.	.	.	(8En'L	.	2%3r	.	2%3r	.	2%3r	.	2%3r	.
.	.	.	.	32B-X	.	.	.	.	.	.	.	.	.	.	.	.	.	.	.	.	.	.	.
.	.	.	.	32B-X	.	.	.	.	.	.	.	.	.	.	.	.	.	.	.	.	.	.	.
.	.	.	.	32B-X	.	.	.	.	.	.	.	.	.	.	.	.	.	.	.	.	.	.	.
.	.	8E'	.	32B-X	.	8a-'J	.	8a-'	.	.	.	.	.	8E'	.	.	.	.	.	.	.	.	.
.	.	.	.	32B-X	.	.	.	.	.	.	.	.	.	.	.	.	.	.	.	.	.	.	.
.	.	.	.	32B-X	.	.	.	.	.	.	.	.	.	.	.	.	.	.	.	.	.	.	.
.	.	.	.	32B-X	.	.	.	.	.	.	.	.	.	.	.	.	.	.	.	.	.	.	.
8r	.	8C	.	32B-X	.	4r	.	8f-X	.	.	.	.	.	8C	.	.	.	.	.	.	.	.	.
.	.	.	.	32B-X	.	.	.	.	.	.	.	.	.	.	.	.	.	.	.	.	.	.	.
.	.	.	.	32B-X	.	.	.	.	.	.	.	.	.	.	.	.	.	.	.	.	.	.	.
.	.	.	.	32B-X	.	.	.	.	.	.	.	.	.	.	.	.	.	.	.	.	.	.	.
8GGG-X'	.	8GG-X	.	32B-X	.	.	.	8B-X	.	.	.	.	.	8GG-XJ)	.	.	.	.	.	.	.	.	.
.	.	.	.	32B-X	.	.	.	.	.	.	.	.	.	.	.	.	.	.	.	.	.	.	.
.	.	.	.	32B-X	.	.	.	.	.	.	.	.	.	.	.	.	.	.	.	.	.	.	.
.	.	.	.	32B-X	.	.	.	.	.	.	.	.	.	.	.	.	.	.	.	.	.	.	.
4r	.	8E	.	32B-X	.	4r	.	8a-	.	.	.	.	.	4r	.	.	.	.	.	.	.	.	.
.	.	.	.	32B-X	.	.	.	.	.	.	.	.	.	.	.	.	.	.	.	.	.	.	.
.	.	.	.	32B-X	.	.	.	.	.	.	.	.	.	.	.	.	.	.	.	.	.	.	.
.	.	.	.	32B-X	.	.	.	.	.	.	.	.	.	.	.	.	.	.	.	.	.	.	.
.	.	8CJ	.	32B-X	.	.	.	8f-J	.	.	.	.	.	.	.	.	.	.	.	.	.	.	.
.	.	.	.	32B-X	.	.	.	.	.	.	.	.	.	.	.	.	.	.	.	.	.	.	.
.	.	.	.	32B-X	.	.	.	.	.	.	.	.	.	.	.	.	.	.	.	.	.	.	.
.	.	.	.	32B-X	.	.	.	.	.	.	.	.	.	.	.	.	.	.	.	.	.	.	.
!	!	!	!	!	!	!	!	!	!	!LO:N:vis=40%3	!	!	!	!	!	!	!	!	!	!	!	!	!
8GGG-'	.	8GG-L	.	32B-X	.	2.r	.	8B-L	.	20%3B-X	I've	že	ja,	2.r	.	.	.	.	.	.	.	.	.
.	.	.	.	32B-X	.	.	.	.	.	.	.	.	.	.	.	.	.	.	.	.	.	.	.
.	.	.	.	32B-X	.	.	.	.	.	.	.	.	.	.	.	.	.	.	.	.	.	.	.
.	.	.	.	32B-X	.	.	.	.	.	.	.	.	.	.	.	.	.	.	.	.	.	.	.
8r	.	8E	.	32B-X	.	.	.	8a-	.	.	.	.	.	.	.	.	.	.	.	.	.	.	.
!	!	!	!	!	!	!	!	!	!	!LO:N:vis=40%3	!	!	!	!	!	!	!	!	!	!	!	!	!
.	.	.	.	.	.	.	.	.	.	20%3F-X	been	jsme	so	.	.	.	.	.	.	.	.	.	.
.	.	.	.	32B-X	.	.	.	.	.	.	.	.	.	.	.	.	.	.	.	.	.	.	.
.	.	.	.	32B-X	.	.	.	.	.	.	.	.	.	.	.	.	.	.	.	.	.	.	.
.	.	.	.	32B-X	.	.	.	.	.	.	.	.	.	.	.	.	.	.	.	.	.	.	.
4r	.	8C	.	32B-X	.	.	.	8f-	.	.	.	.	.	.	.	.	.	.	.	.	.	.	.
.	.	.	.	32B-X	.	.	.	.	.	.	.	.	.	.	.	.	.	.	.	.	.	.	.
!	!	!	!	!	!	!	!	!	!	!LO:N:vis=40%3	!	!	!	!	!	!	!	!	!	!	!	!	!
.	.	.	.	.	.	.	.	.	.	20%3F-	kept	če-	kann	.	.	.	.	.	.	.	.	.	.
.	.	.	.	32B-X	.	.	.	.	.	.	.	.	.	.	.	.	.	.	.	.	.	.	.
.	.	.	.	32B-X	.	.	.	.	.	.	.	.	.	.	.	.	.	.	.	.	.	.	.
.	.	8GG-J)	.	32B-X	.	.	.	8B-J)	.	.	.	.	.	.	.	.	.	.	.	.	.	.	.
.	.	.	.	32B-X	.	.	.	.	.	.	.	.	.	.	.	.	.	.	.	.	.	.	.
.	.	.	.	32B-X	.	.	.	.	.	.	.	.	.	.	.	.	.	.	.	.	.	.	.
!	!	!	!	!	!	!	!	!	!	!LO:S:dash	!	!	!	!	!	!	!	!	!	!	!	!	!
!	!	!	!	!	!	!	!	!	!	!LO:N:vis=40%3	!	!	!	!	!	!	!	!	!	!	!	!	!
.	.	.	.	.	.	.	.	.	.	(20%3F-	out	ka-	man's	.	.	.	.	.	.	.	.	.	.
.	.	.	.	32B-X	.	.	.	.	.	.	.	.	.	.	.	.	.	.	.	.	.	.	.
4r	.	4r	.	32B-X	.	.	.	4r	.	.	.	.	.	.	.	.	.	.	.	.	.	.	.
.	.	.	.	32B-X	.	.	.	.	.	.	.	.	.	.	.	.	.	.	.	.	.	.	.
.	.	.	.	32B-X	.	.	.	.	.	.	.	.	.	.	.	.	.	.	.	.	.	.	.
.	.	.	.	32B-X	.	.	.	.	.	.	.	.	.	.	.	.	.	.	.	.	.	.	.
!	!	!	!	!	!	!	!	!	!	!LO:N:vis=40%3	!	!	!	!	!	!	!	!	!	!	!	!	!
.	.	.	.	.	.	.	.	.	.	20%3F-)	.	li	der	.	.	.	.	.	.	.	.	.	.
.	.	.	.	32B-X	.	.	.	.	.	.	.	.	.	.	.	.	.	.	.	.	.	.	.
.	.	.	.	32B-X	.	.	.	.	.	.	.	.	.	.	.	.	.	.	.	.	.	.	.
.	.	.	.	32B-X	.	.	.	.	.	.	.	.	.	.	.	.	.	.	.	.	.	.	.
.	.	.	.	32B-XJJJ	.	.	.	.	.	.	.	.	.	.	.	.	.	.	.	.	.	.	.
*	*	*	*	*	*	*	*	*	*	*	*	*	*	*	*	*	*	*	*	*	*	*	*
=99	=99	=99	=99	=99	=99	=99	=99	=99	=99	=99	=99	=99	=99	=99	=99	=99	=99	=99	=99	=99	=99	=99	=99
!	!	!	!	!	!	!	!	!	!	!LO:TUP:num=2	!	!	!	!	!	!	!	!	!	!	!	!	!
4r	.	(8E'L	.	32B-XLLL	.	8a-X'L	.	(8a-X'L	.	16%3c	late	na	Frau	(8E'L	.	2%3r	.	2%3r	.	2%3r	.	2%3r	.
.	.	.	.	32B-X	.	.	.	.	.	.	.	.	.	.	.	.	.	.	.	.	.	.	.
.	.	.	.	32B-X	.	.	.	.	.	.	.	.	.	.	.	.	.	.	.	.	.	.	.
.	.	.	.	32B-X	.	.	.	.	.	.	.	.	.	.	.	.	.	.	.	.	.	.	.
.	.	8E'	.	32B-X	.	8a-'J	.	8a-'	.	.	.	.	.	8E'	.	.	.	.	.	.	.	.	.
.	.	.	.	32B-X	.	.	.	.	.	.	.	.	.	.	.	.	.	.	.	.	.	.	.
.	.	.	.	32B-X	.	.	.	.	.	16%3c	by	po-	er	.	.	.	.	.	.	.	.	.	.
.	.	.	.	32B-X	.	.	.	.	.	.	.	.	.	.	.	.	.	.	.	.	.	.	.
8r	.	8C	.	32B-X	.	4r	.	8f-X	.	.	.	.	.	8C	.	.	.	.	.	.	.	.	.
.	.	.	.	32B-X	.	.	.	.	.	.	.	.	.	.	.	.	.	.	.	.	.	.	.
.	.	.	.	32B-X	.	.	.	.	.	.	.	.	.	.	.	.	.	.	.	.	.	.	.
.	.	.	.	32B-X	.	.	.	.	.	.	.	.	.	.	.	.	.	.	.	.	.	.	.
8GGG-X'	.	8GG-X	.	32B-X	.	.	.	8B-X	.	16%3c	poachers!	ber-	klä	8GG-XJ)	.	.	.	.	.	.	.	.	.
.	.	.	.	32B-X	.	.	.	.	.	.	.	.	.	.	.	.	.	.	.	.	.	.	.
.	.	.	.	32B-X	.	.	.	.	.	.	.	.	.	.	.	.	.	.	.	.	.	.	.
.	.	.	.	32B-X	.	.	.	.	.	.	.	.	.	.	.	.	.	.	.	.	.	.	.
4r	.	8E	.	32B-X	.	4r	.	8a-	.	.	.	.	.	4r	.	.	.	.	.	.	.	.	.
.	.	.	.	32B-X	.	.	.	.	.	.	.	.	.	.	.	.	.	.	.	.	.	.	.
.	.	.	.	32B-X	.	.	.	.	.	16%3c	.	ty!	ren	.	.	.	.	.	.	.	.	.	.
.	.	.	.	32B-X	.	.	.	.	.	.	.	.	.	.	.	.	.	.	.	.	.	.	.
.	.	8CJ	.	32B-X	.	.	.	8f-J	.	.	.	.	.	.	.	.	.	.	.	.	.	.	.
.	.	.	.	32B-X	.	.	.	.	.	.	.	.	.	.	.	.	.	.	.	.	.	.	.
.	.	.	.	32B-X	.	.	.	.	.	.	.	.	.	.	.	.	.	.	.	.	.	.	.
.	.	.	.	32B-X	.	.	.	.	.	.	.	.	.	.	.	.	.	.	.	.	.	.	.
8GGG-'	.	8GG-L	.	32B-X	.	2.r	.	8B-L	.	2.r	.	.	.	2.r	.	.	.	.	.	.	.	.	.
.	.	.	.	32B-X	.	.	.	.	.	.	.	.	.	.	.	.	.	.	.	.	.	.	.
.	.	.	.	32B-X	.	.	.	.	.	.	.	.	.	.	.	.	.	.	.	.	.	.	.
.	.	.	.	32B-X	.	.	.	.	.	.	.	.	.	.	.	.	.	.	.	.	.	.	.
8r	.	8E	.	32B-X	.	.	.	8a-	.	.	.	.	.	.	.	.	.	.	.	.	.	.	.
.	.	.	.	32B-X	.	.	.	.	.	.	.	.	.	.	.	.	.	.	.	.	.	.	.
.	.	.	.	32B-X	.	.	.	.	.	.	.	.	.	.	.	.	.	.	.	.	.	.	.
.	.	.	.	32B-X	.	.	.	.	.	.	.	.	.	.	.	.	.	.	.	.	.	.	.
4r	.	8C	.	32B-X	.	.	.	8f-	.	.	.	.	.	.	.	.	.	.	.	.	.	.	.
.	.	.	.	32B-X	.	.	.	.	.	.	.	.	.	.	.	.	.	.	.	.	.	.	.
.	.	.	.	32B-X	.	.	.	.	.	.	.	.	.	.	.	.	.	.	.	.	.	.	.
.	.	.	.	32B-X	.	.	.	.	.	.	.	.	.	.	.	.	.	.	.	.	.	.	.
.	.	8GG-J)	.	32B-X	.	.	.	8B-J)	.	.	.	.	.	.	.	.	.	.	.	.	.	.	.
.	.	.	.	32B-X	.	.	.	.	.	.	.	.	.	.	.	.	.	.	.	.	.	.	.
.	.	.	.	32B-X	.	.	.	.	.	.	.	.	.	.	.	.	.	.	.	.	.	.	.
.	.	.	.	32B-X	.	.	.	.	.	.	.	.	.	.	.	.	.	.	.	.	.	.	.
4r	.	4r	.	32B-X	.	.	.	4r	.	.	.	.	.	.	.	.	.	.	.	.	.	.	.
.	.	.	.	32B-X	.	.	.	.	.	.	.	.	.	.	.	.	.	.	.	.	.	.	.
.	.	.	.	32B-X	.	.	.	.	.	.	.	.	.	.	.	.	.	.	.	.	.	.	.
.	.	.	.	32B-X	.	.	.	.	.	.	.	.	.	.	.	.	.	.	.	.	.	.	.
.	.	.	.	32B-X	.	.	.	.	.	.	.	.	.	.	.	.	.	.	.	.	.	.	.
.	.	.	.	32B-X	.	.	.	.	.	.	.	.	.	.	.	.	.	.	.	.	.	.	.
.	.	.	.	32B-X	.	.	.	.	.	.	.	.	.	.	.	.	.	.	.	.	.	.	.
.	.	.	.	32B-XJJJ	.	.	.	.	.	.	.	.	.	.	.	.	.	.	.	.	.	.	.
*	*	*	*	*Xtremolo	*	*	*	*	*	*	*	*	*	*	*	*	*	*	*	*	*	*	*
=	=	=	=	=	=	=	=	=	=	=	=	=	=	=	=	=	=	=	=	=	=	=	=
*-	*-	*-	*-	*-	*-	*-	*-	*-	*-	*-	*-	*-	*-	*-	*-	*-	*-	*-	*-	*-	*-	*-	*-
!!!system-decoration: ([s1,s2,s3,s4,s5])s6[(s7,s8,s9,s10,s11)]
!!!RDF**kern: N = cue size
!!!RDF**kern: > = above
!!!RDF**kern: < = below
!!!EED: Daniel Wright
!!!EEV: 2021/11/26
!!!EED2: Jason Lee
!!!Suter_Work_ID: Jan-44
!!!Suter_Example_Number: 136
!!!Suter_Example_ID: Jan-44/8-9/3-1[6]1-8
!!!Premiere_Location: Brno,Czech Republic
!!!Other_Tsigs: none
!!!Full_Unit_Duration: 9:06
!!!First_Publication_Year: 1924
!!!First_Public_Performance_Year: 1924
!!!Example_Total_Measures: 11
!!!Example_Timestamp_Duration: 19
!!!Example_Start_Tsig_Type: compound duple
!!!Example_Start_Tsig_Mean_Beat_Rate: 56
!!!Example_Start_Tsig_Beat_Rate: 56
!!!Example_Start_Tsig_Beat: dotted-half
!!!Example_Start_Tsig: 6/4
!!!Example_Start_Timestamp: 0:13
!!!Example_Start_Tempo_Expression: [Meno mosso]
!!!Example_Start_Notated_Beat_Rate: [56]
!!!Example_Start_Notated_Beat: [dotted-half]
!!!Example_Start_Measure: 74
!!!Example_Metadata_Validated: Y
!!!Example_End_Timestamp: 0:32
!!!Example_End_Measure: 84
!!!Example_Dataset: T
!!!Editorial_Comments: Example Start Notated Beat and Example Start Notated Beat Rate [dotted-half=56] based on most recent notated beat rate (SWFU, m. 71). Example Start Tempo Expression [Meno mosso] based on most recent notated tempo expression (SWFU, m. 71). Editorial Note: Suter's example is a piano reduction. Full Unit Duration and Example Start/End Time calculated from track 2 of \"Act I: Dostaneme bourku\" (https://ubc-naxosmusiclibrary-com.eu1.proxy.openathens.net/catalogue/item.asp?cid=SU3071-2).
!!!Death_Place: Moravaská Ostrava,Czech Republic
!!!Death_Date: 12-Aug-1928
!!!Changing_Tsig: no
!!!Birth_Place: Hukvaldy,Moravia
!!!Birth_Date: 3-Jul-1854
!!!Audio_Example_Quarter_Note_Tempo:
!!!Audio_Example_Duration:
!!!EEV2: 2022/05/02
